X:39
T:Les soucis du mnage
R:
N:
O:France
Z:<anamnese@laposte.net> -- http://anamnese.fr.st
M:3/4
L:1/8
Q:1/4=90
K:Bb
D | G2B2 AB | G2 ^F zD | G2B2 A B |
[M:2/4] G2 zG | d d/ d/ e d | c B A B |
 c d f=e | d4 | d d/ d/ e d | c B G G | 
 A A d d | [M:3/4] BA G4 ||
